X:1
T:So Near to the Kingdom
T:Robert Lowry
T:So Near to the Kingdom
T:Public Domain
T:Public Domain
C:Robert Lowry
Z:Public Domain
%%score ( 1 2 ) ( 3 4 )
L:1/8
M:3/4
K:Eb
V:1 treble 
V:2 treble 
V:3 bass 
V:4 bass 
V:1
 [EB]2 | [EB]4 [EG]>[FA] | [GB]2 [GB]2 [EG]2 | [DF]2 [CE]2 [DF]2 | [EG]4 [GB]2 | [Ac]4 [Ac]>[Bd] | %6
w: 1.~So|near to the|king- dom! yet|what dost thou|lack? So|near to the|
w: 2.~So|near that thou|hear- est the|songs that re-|sound From|those who, be-|
w: 3.~O|come; soon thy|sea- son of|grace may be|past, The|door may be|
w: 4.~To|die with no|hope! hast thou|count- ed the|cost? To|die out of|
 [ce]2 [Bd]2 [Ac]2 | [GB]2 [EG]2 [EB]2 | [DF]4 [DB]2 | [EB]4 [EG]>[FA] | [GB]2 [EG]2 E2 | %11
w: king- dom! what|keep- eth thee|back? Re-|nounce ev- ery|i- dol, tho’|
w: liev- ing, a|par- don have|found! So|near, yet un-|will- ing to|
w: closed, and this|call be thy|last; O|where wouldst thou|turn if the|
w: Christ, and thy|soul to be|lost! So|near to the|king- dom! O|
 [EG]2 [EA]2 [EB]2 | [Ec]4 [Ad]2 | [Ge]3 [Ad] [Be]2 | [Ac]2 [FA]2 [CF]2 | [B,E]2 [EG]3 [DF] | E6 || %17
w: it may be,|And come|to the Sav-|ior now plead-|ing with thee.|Plead-|
w: up thy sin,|When Je-|sus is wait-|ing to wel-|come thee in!||
w: should de- part|That comes|from the Spir-|it, and shines|on thy heart?||
w: we im- plore,|While Je-|sus is plead-|ing, come en-|ter the Door.||
"^Refrain" [DB]6 | ([DF]2 [EG]2) [FA]2 | [E-G]6 | [EB]4 [EG]2 | [EA]2 [EG]2 [EG]2 | %22
w: with|thee, * The|Sav-|* ior|is plead- ing,|
w: |||||
w: |||||
w: |||||
 [EA]2 [EG]2 [EG]2 | [DF]2 [DG]2 [DF]2 | E4 |] %25
w: is plead- ing|with thee. *||
w: |||
w: |||
w: |||
V:2
 x2 | x6 | x6 | x6 | x6 | x6 | x6 | x6 | x6 | x6 | x4 E2 | x6 | x6 | x6 | x6 | x6 | E6 || x6 | x6 | %19
w: ||||||||||dear||||||ing|||
w: ||||||||||give|||||||||
w: ||||||||||light|||||||||
w: ||||||||||come,|||||||||
 x6 | x6 | x6 | x6 | x6 | E4 |] %25
w: ||||||
w: ||||||
w: ||||||
w: ||||||
V:3
 [E,G,]2 | [E,G,]4 [E,B,]>[E,B,] | [E,E]2 [E,E]2 [E,B,]2 | [B,,B,]2 [B,,B,]2 [B,,B,]2 | %4
w: ~|~ ~ ~|~ ~ ~|~ ~ ~|
 [E,B,]4 [E,E]2 | [A,E]4 [A,E]>[A,E] | [A,E]2 [A,E]2 [A,E]2 | [E,E]2 [E,B,]2 [G,,B,]2 | %8
w: ~ ~|~ ~ ~|~ ~ ~|~ ~ ~|
 [B,,B,]4 [B,,A,]2 | [E,G,]4 [E,B,]>[E,B,] | [E,E]2 [E,B,]2 [E,G,]2 | [E,B,]2 [C,A,]2 [E,G,]2 | %12
w: ~ ~|~ ~ ~|~ ~ ~|~ ~ ~|
 A,4 [F,B,]2 | [E,B,]3 [F,B,] [G,E]2 | [A,E]2 [A,,C]2 [A,,A,]2 | [B,,G,]2 [B,,B,]3 [B,,A,] | %16
w: ~ ~|~ ~ ~|~ ~ ~|~ ~ ~|
 [E,G,]6 || [B,,F,]2 [B,,F,]2 [B,,F,]2 | [B,,B,]6 | [E,B,]2 [E,B,]2 [E,B,]2 | [E,G,]4 [E,B,]2 | %21
w: Plead-|ing with thee,|plead-|ing with thee.||
 [E,C]2 [E,B,]2 [E,B,]2 | [E,C]2 [E,B,]2 [E,B,]2 | [B,,A,]2 [B,,B,]2 [B,,A,]2 | [E,G,]4 |] %25
w: ||||
V:4
 x2 | x6 | x6 | x6 | x6 | x6 | x6 | x6 | x6 | x6 | x6 | x6 | A,4 x2 | x6 | x6 | x6 | x6 || x6 | %18
w: ||||||||||||~||||||
 x6 | x6 | x6 | x6 | x6 | x6 | x4 |] %25
w: |||||||

